src/status/16/audacious-panel.svg

<svg xmlns="http://www.w3.org/2000/svg" xmlns:xlink="http://www.w3.org/1999/xlink" width="16px" height="16px" viewBox="0 0 16 16" version="1.1">
<g id="surface1">
<path style=" stroke:none;fill-rule:nonzero;fill:rgb(18.039216%,20.392157%,25.098041%);fill-opacity:1;" d="M 8.640625 2.183594 C 8.433594 2.175781 8.222656 2.1875 8.003906 2.195312 C 6.710938 2.25 4.417969 2.207031 3.527344 3.191406 C 2.980469 3.792969 3.234375 5.191406 4.070312 5.335938 C 5.113281 5.515625 6.875 5.066406 8.003906 5.179688 C 8.792969 5.253906 9.023438 5.847656 8.382812 6.257812 C 7.703125 6.691406 6.160156 6.558594 5.382812 6.777344 C 2.691406 7.53125 1.722656 9.132812 2.382812 11.296875 C 2.8125 12.710938 4.332031 13.757812 5.992188 13.816406 C 9.183594 13.8125 8.589844 12.308594 10.136719 13.089844 C 10.644531 13.636719 11.667969 13.8125 12.199219 13.429688 C 13.054688 12.8125 14.34375 12.480469 13.433594 11.210938 C 13 10.605469 14.011719 9.820312 13.785156 6.800781 C 13.582031 4.125 11.746094 2.285156 8.640625 2.183594 Z M 8.226562 8.65625 C 8.945312 8.65625 9.511719 9.125 9.511719 9.710938 C 9.511719 10.292969 8.945312 10.777344 8.226562 10.777344 C 7.507812 10.777344 6.914062 10.292969 6.914062 9.710938 C 6.914062 9.125 7.507812 8.65625 8.226562 8.65625 Z M 8.226562 8.65625 "/>
</g>
</svg>

<svg width="16px" height="16px" version="1.1" viewBox="0 0 16 16" xmlns="http://www.w3.org/2000/svg">
 <path d="m8.6406 2.1836c-0.20703-0.007813-0.41797 0.003906-0.63672 0.011718-1.293 0.054688-3.5859 0.011719-4.4766 0.99609-0.54688 0.60156-0.29297 2 0.54297 2.1445 1.043 0.17969 2.8047-0.26953 3.9336-0.15625 0.78906 0.074218 1.0195 0.66797 0.37891 1.0781-0.67969 0.43359-2.2227 0.30078-3 0.51953-2.6914 0.75391-3.6602 2.3555-3 4.5195 0.42969 1.4141 1.9492 2.4609 3.6094 2.5195 3.1914-0.003906 2.5977-1.5078 4.1445-0.72656 0.50781 0.54688 1.5312 0.72266 2.0625 0.33984 0.85547-0.61719 2.1445-0.94922 1.2344-2.2188-0.43359-0.60547 0.57812-1.3906 0.35156-4.4102-0.20312-2.6758-2.0391-4.5156-5.1445-4.6172zm-0.41406 6.4727c0.71875 0 1.2852 0.46875 1.2852 1.0547 0 0.58203-0.56641 1.0664-1.2852 1.0664s-1.3125-0.48438-1.3125-1.0664c0-0.58594 0.59375-1.0547 1.3125-1.0547z" fill="#2e3440"/>
</svg>
